X: 9125
T: Phyllis' Kitchen (with piano acc.)
C: BB
R: hornpipe
Q: 1/8=330
M: C|
L: 1/8
V: 1 program 1 110 %fiddle
V: 2 volume=70 clef=bass m=D program 1 01
K: Dmix
[V:1] "D"D2 FA dAFD|"C"EGCG EGCG|"D"D2 FA dAFA|"G"G2 EF "C"Gc (3cBc|
[V:2] D,2[A2D2F2]A,,2[A2D2F2]|C,2[E2G2C2]G,,2[E2C2G2]|D,2[A2D2F2]A,,2[A2D2F2]|\
G,,2[G2B2D2]C,2[E2G2C2]|
%
[V:1] "D"D2 FA dAFD|"C"EGcd edce|"D"fd (3d^cd "C"=cG (3GFG|"Am7"cAGE "D"D4 :|
[V:2] D,2[A2D2F2]A,,2[A2D2F2]|C,2[E2G2C2]G,,2[E2C2G2]|D,2[A2D2F2]C,2[E2G2C2]|\
A,,2[G2C2E2][D,4A,4F4]:|
%
[V:1] "D"fage fddf|"C"ecgc acgc|"D"Adfa "Em"gfed|"G"(3B^cd ef "C"g3 e|
[V:2] D,2[A2D2F2]A,,2[A2D2F2]|C,2[E2G2C2]G,,2[E2C2G2]|D,2[A2D2F2]E,2[E2B2G2]|\
G,,2[G2B2D2]C,2[E2G2C2]|
%
[V:1] "D"fage fddf|"C"ecgc edce|"D"fd (3d^cd "C"=cG (3GFG|"Am7"cAGE "D"D4 :|
[V:2] D,2[A2D2F2]A,,2[A2D2F2]|C,2[E2G2C2]G,,2[E2C2G2]|D,2[A2D2F2]C,2[E2G2C2]|
A,,2[G2C2E2][D,4A,4F4] :|
%%%%%tune repeat
[V:1] "D"D2 FA dAFD|"C"EGCG EGCG|"D"D2 FA dAFA|"G"G2 EF "C"Gc (3cBc|
[V:2] D,2[A2D2F2]A,,2[A2D2F2]|C,2[E2G2C2]G,,2[E2C2G2]|D,2[A2D2F2]A,,2[A2D2F2]|\
G,,2[G2B2D2]C,2[E2G2C2]|
%
[V:1] "D"D2 FA dAFD|"C"EGcd edce|"D"fd (3d^cd "C"=cG (3GFG|"Am7"cAGE "D"D4 :|
[V:2] D,2[A2D2F2]A,,2[A2D2F2]|C,2[E2G2C2]G,,2[E2C2G2]|D,2[A2D2F2]C,2[E2G2C2]|\
A,,2[G2C2E2][D,4A,4F4]:|
%
[V:1] "D"fage fddf|"C"ecgc acgc|"D"Adfa "Em"gfed|"G"(3B^cd ef "C"g3 e|
[V:2] D,2[A2D2F2]A,,2[A2D2F2]|C,2[E2G2C2]G,,2[E2C2G2]|D,2[A2D2F2]E,2[E2B2G2]|\
G,,2[G2B2D2]C,2[E2G2C2]|
%
[V:1] "D"fage fddf|"C"ecgc edce|"D"fd (3d^cd "C"=cG (3GFG|1 "Am7"cAGE "D"D4 :|2\
"Am7"cAGE "D"HD4 ||
[V:2] D,2[A2D2F2]A,,2[A2D2F2]|C,2[E2G2C2]G,,2[E2C2G2]|D,2[A2D2F2]C,2[E2G2C2]|1\
A,,2[G2C2E2][D,4A,4F4] :|2 A,,2[G2C2E2] H[D,4A,4F4] ||
%%%%%%%%%%%%%%%%%%%%%%%%%%%%%%%%%%%%%%%%%%%
